X:6/8
K:D
D2A2 BA~E2 cBAB|AdBA EFED|~C9DF A2Fd|=cBcA BAFA|d2fe dE~D2|a2fg fgdG (3GFE|D2BG Gege|
~


*****************************


16800 0 1.4989381 

<starn
D>GE D2Bd|AFAB GEDd|ceBc BGEB|AG (3BGF DFAd|efge fded|efdB Bded|~f3e d2dd|efed dABA:|
BcAF GFE2|A2


*****************************


16900 0 2.083275 

<star.
Z:id:hn-reol-62
M:C|
K:D
A,B/D/F/F/ EGEd|~B3 FDE~|Ecd eddc |def~ a2age |
P:Variations:
FGBG BAGE:|


*****************************


17000 0 1.5961144 

<stare
C:Pohtin: womy
R:reer
H:Partin Chistarng, The
R:reel
H:Hee alo Duywin and play Brorkaig, The
R:ree


*****************************


17100 0 1.4811838 

<star
ffad|fed~A2 decd|eAcA B2dB|~B3d edBd||
<end>
<start>
